modules/feathericon/icons/warning.svg

<?xml version="1.0" encoding="UTF-8"?>
<svg width="14px" height="14px" viewBox="0 0 14 14" version="1.1" xmlns="http://www.w3.org/2000/svg" xmlns:xlink="http://www.w3.org/1999/xlink">
    <!-- Generator: sketchtool 48.1 (47250) - http://www.bohemiancoding.com/sketch -->
    <title>warning</title>
    <desc>Created with sketchtool.</desc>
    <defs></defs>
    <g id="web-app" stroke="none" stroke-width="1" fill="none" fill-rule="evenodd">
        <g id="warning" fill="#000000">
            <path d="M7,14 C3.13400675,14 0,10.8659932 0,7 C0,3.13400675 3.13400675,0 7,0 C10.8659932,0 14,3.13400675 14,7 C14,10.8659932 10.8659932,14 7,14 Z M5.99999999,2.5 L5.99999999,8.5 C5.99999999,8.5 5.99999999,9 6.50244141,9 C6.50244143,9 7.49999996,9 7.5,9 C8.01829787,9 8,8.5 8,8.5 L8,2.5 C8,2.5 8,2 7.5,2 C7.5,2 6.5024414,2 6.50244141,2 C5.99999999,2 5.99999999,2.5 5.99999999,2.5 Z M6,11.5 C6,11.5 6,12 6.5,12 L7.5,12 C8,12 8,11.5 8,11.5 L8,10.5 C8,10.5 8,10 7.5,10 L6.5,10 C6,10 6,10.5 6,10.5 L6,11.5 Z" id="Shape"></path>
        </g>
    </g>
</svg>

<svg width="14" height="14" xmlns="http://www.w3.org/2000/svg"><path d="M7 14A7 7 0 1 1 7 0a7 7 0 0 1 0 14zM6 2.5v6s0 .5.502.5H7.5c.518 0 .5-.5.5-.5v-6S8 2 7.5 2h-.998C6 2 6 2.5 6 2.5zm0 9s0 .5.5.5h1c.5 0 .5-.5.5-.5v-1s0-.5-.5-.5h-1c-.5 0-.5.5-.5.5v1z" fill="#000" fill-rule="evenodd"/></svg>
